packages/ui-icons/src/Service-logos/24/IMO_direct_url.svg

<svg viewBox="0 0 32 32" fill="none" xmlns="http://www.w3.org/2000/svg">
<path d="M16 28C22.6274 28 28 22.6274 28 16C28 9.37258 22.6274 4 16 4C9.37258 4 4 9.37258 4 16C4 22.6274 9.37258 28 16 28Z" fill="white"/>
<path fill-rule="evenodd" clip-rule="evenodd" d="M3.5 16C3.5 9.09644 9.09644 3.5 16 3.5C22.9036 3.5 28.5 9.09644 28.5 16C28.5 22.9036 22.9036 28.5 16 28.5C9.09644 28.5 3.5 22.9036 3.5 16ZM16 4.5C9.64873 4.5 4.5 9.64873 4.5 16C4.5 22.3513 9.64873 27.5 16 27.5C22.3513 27.5 27.5 22.3513 27.5 16C27.5 9.64873 22.3513 4.5 16 4.5Z" fill="#D8D8D8"/>
<path fill-rule="evenodd" clip-rule="evenodd" d="M15.8 9.01001C15.1755 9.04154 14.5805 9.15605 13.9785 9.36049C13.2178 9.61882 12.5614 9.97847 11.914 10.4917C11.5425 10.7862 11.2371 11.0891 10.8458 11.5512C10.6679 11.7611 10.4363 12.0956 10.2551 12.4042C9.395 13.8688 9.0932 15.6126 9.40769 17.3006C9.53614 17.9901 9.73037 18.5612 10.0518 19.1946L10.1735 19.4345C10.1811 19.4495 10.1868 19.4653 10.1905 19.4818L10.2062 19.5528C10.2093 19.567 10.2112 19.5816 10.2102 19.5962C10.2054 19.6648 10.1777 19.6753 10.1477 19.7474C10.0284 20.0342 9.80985 20.2912 9.35751 20.6766C9.18335 20.8249 9.11358 20.9042 9.05738 21.0177C9.00471 21.124 8.9903 21.2025 9.00601 21.2973C9.066 21.6597 9.5411 21.9773 10.1201 22.0421C10.1804 22.0489 10.3728 22.0543 10.5476 22.0542C11.2073 22.0537 11.8209 21.9586 12.1833 21.8008C12.2395 21.7764 12.3042 21.7821 12.3552 21.8162L12.3806 21.8331C13.4152 22.5237 14.6372 22.9221 15.8638 22.9688H16.4174C17.204 22.9399 18.0327 22.7563 18.7576 22.4504C18.9834 22.3552 19.3945 22.1483 19.5907 22.0312C20.3416 21.5829 21.0284 20.9666 21.577 20.2486C21.812 19.9412 22.0998 19.4751 22.2761 19.1166C22.664 18.3279 22.8971 17.4838 22.9793 16.57C23.0142 16.1811 23.0042 15.6044 22.9548 15.1628C22.8231 13.9847 22.3665 12.8061 21.6698 11.8458C21.5779 11.7192 21.4549 11.5605 21.4318 11.5387C21.4253 11.5325 21.3759 11.4747 21.3221 11.4102C21.1844 11.245 20.7438 10.7983 20.5936 10.6715C20.0927 10.2485 19.6751 9.96808 19.1741 9.71819C18.3095 9.2869 17.4324 9.05725 16.4667 9.00932C16.2125 8.9967 16.06 8.99686 15.8 9.01001ZM19.6878 11.2184C18.7699 10.515 17.697 10.1074 16.5489 10.0257C16.3665 10.0127 15.899 10.0131 15.7213 10.0263C14.585 10.111 13.517 10.5173 12.6083 11.2108C11.8387 11.7981 11.2573 12.511 10.8381 13.3815C10.3422 14.4109 10.1458 15.5681 10.2741 16.704C10.3319 17.2158 10.4671 17.7705 10.6484 18.2397C10.7212 18.4282 10.9052 18.8166 11.0186 19.0212C11.0819 19.1354 11.106 19.1917 11.1225 19.2633C11.2228 19.6988 11.1456 20.1292 10.902 20.4922C10.8241 20.6083 10.6622 20.7858 10.555 20.8728L10.5116 20.9079C10.4991 20.9181 10.5019 20.938 10.5169 20.9442C10.5351 20.9518 10.5938 20.9654 10.6474 20.9746C11.0089 21.0364 11.5209 20.9836 12.2718 20.8072C12.3881 20.7798 12.4876 20.7602 12.4928 20.7635C12.498 20.7668 12.5536 20.8088 12.6164 20.857C12.8437 21.0313 13.1899 21.2501 13.4578 21.3886C14.7753 22.0699 16.2922 22.2248 17.7234 21.8241C18.6717 21.5587 19.5868 21.0185 20.265 20.3239C20.5531 20.0288 20.7548 19.7886 20.9527 19.505C21.6862 18.4531 22.067 17.1855 22.0371 15.8943C22.0201 15.1546 21.891 14.4969 21.6294 13.817C21.3274 13.0318 20.9005 12.3738 20.2824 11.7407C20.0744 11.5277 19.9575 11.425 19.6878 11.2184Z" fill="url(#paint0_linear_192_10218)"/>
<path fill-rule="evenodd" clip-rule="evenodd" d="M19.1906 15.1304C18.651 15.1732 18.2302 15.508 18.09 16.006C17.9727 16.4228 18.0308 16.8973 18.2369 17.2066C18.4124 17.4699 18.6761 17.6428 19.0152 17.7168C19.1588 17.7481 19.4652 17.7453 19.6154 17.7113C20.065 17.6094 20.3825 17.3262 20.5199 16.9046C20.5776 16.7277 20.5882 16.6487 20.5872 16.4025C20.5863 16.1841 20.5847 16.1675 20.5526 16.0434C20.5168 15.905 20.456 15.7605 20.3926 15.6632C20.3275 15.5633 20.2109 15.4323 20.1346 15.3732C20.0317 15.2936 19.8428 15.2026 19.7103 15.1687C19.6173 15.145 19.3791 15.115 19.3221 15.1199L19.1906 15.1304ZM19.8149 16.3244C19.7876 16.0075 19.6741 15.788 19.4941 15.704C19.4213 15.6701 19.297 15.6594 19.218 15.6804C19.0349 15.729 18.9138 15.8736 18.849 16.1211C18.8143 16.2534 18.8085 16.5401 18.8376 16.6817C18.8788 16.8822 18.9461 17.0122 19.0529 17.0976C19.1393 17.1667 19.2072 17.1895 19.3278 17.1897C19.4173 17.1898 19.4335 17.1864 19.4987 17.1537C19.7226 17.0414 19.8483 16.7119 19.8149 16.3244Z" fill="url(#paint1_linear_192_10218)"/>
<path d="M14.9129 15.1185C14.8106 15.1302 14.6641 15.1799 14.5798 15.2313C14.5063 15.2762 14.3731 15.3999 14.3298 15.4635C14.2833 15.532 14.2727 15.5237 14.2637 15.4113C14.2545 15.2974 14.2408 15.259 14.1929 15.2131C14.1704 15.1915 14.1407 15.1793 14.1096 15.1789L13.9245 15.1762L13.736 15.1734C13.7071 15.173 13.679 15.1832 13.657 15.202C13.6382 15.2181 13.6186 15.2473 13.6134 15.2668C13.6082 15.2864 13.6077 15.4254 13.6123 15.576C13.617 15.7265 13.6211 16.2144 13.6215 16.6602C13.6223 17.5539 13.621 17.5353 13.6906 17.6079C13.7583 17.6785 13.7695 17.681 14.0168 17.6811C14.2685 17.6813 14.2777 17.6789 14.3263 17.5992C14.3426 17.5725 14.3513 17.5419 14.3515 17.5107L14.3566 16.8213L14.3618 16.1216C14.362 16.0969 14.3668 16.0724 14.3759 16.0494L14.3875 16.0203C14.4642 15.8267 14.6129 15.7207 14.7878 15.735C14.907 15.7448 14.9982 15.814 15.0531 15.9366C15.1082 16.0596 15.1122 16.1187 15.1126 16.8221C15.113 17.5547 15.1129 17.5534 15.1887 17.6231C15.2498 17.6794 15.3134 17.691 15.5256 17.6847C15.716 17.6789 15.7451 17.6708 15.7963 17.6087C15.8119 17.5899 15.8297 17.5558 15.8359 17.5329C15.8431 17.5066 15.8474 17.2518 15.8477 16.8381C15.8482 16.028 15.8526 15.9935 15.9723 15.8586C16.047 15.7744 16.1243 15.7393 16.2365 15.7387C16.4109 15.7377 16.5125 15.8224 16.5773 16.0228C16.5954 16.0787 16.5977 16.15 16.6032 16.8213L16.6088 17.5069C16.609 17.5407 16.6179 17.5739 16.6344 17.6033L16.6357 17.6055C16.6782 17.6811 16.7004 17.6869 16.9518 17.6869C17.0858 17.6869 17.1848 17.6819 17.2077 17.6742C17.2628 17.6554 17.3024 17.6122 17.3277 17.5433C17.3497 17.4832 17.3501 17.4664 17.3462 16.7049L17.3424 15.9507C17.3424 15.9355 17.3405 15.9204 17.337 15.9056L17.3118 15.7994C17.2276 15.4448 17.0319 15.2127 16.7517 15.1355C16.6468 15.1066 16.4622 15.1009 16.3474 15.123C16.1452 15.1619 16.0135 15.2378 15.8388 15.4163C15.7767 15.4796 15.7238 15.5314 15.7211 15.5314C15.7184 15.5314 15.7043 15.5075 15.6898 15.4783C15.5604 15.219 15.258 15.0789 14.9129 15.1185Z" fill="url(#paint2_linear_192_10218)"/>
<path d="M12.1374 15.1817C12.0962 15.193 12.0675 15.2202 12.0502 15.2641C12.0348 15.3035 12.0329 15.4316 12.0329 16.4222C12.033 17.1439 12.0369 17.5504 12.0441 17.577C12.0504 17.5999 12.0722 17.633 12.0938 17.6523C12.1186 17.6745 12.1507 17.6868 12.1839 17.6868L12.4032 17.6867C12.7129 17.6867 12.7235 17.684 12.7658 17.595L12.7698 17.5864C12.7826 17.5596 12.7892 17.5303 12.7892 17.5006V16.4263C12.7892 15.3476 12.7884 15.3055 12.7683 15.2656C12.7276 15.1847 12.7074 15.1797 12.4165 15.1776C12.2748 15.1766 12.1493 15.1784 12.1374 15.1817Z" fill="url(#paint3_linear_192_10218)"/>
<path d="M12.2665 13.8874C12.0924 13.9506 11.9985 14.1009 12.0141 14.2912C12.0257 14.4312 12.0913 14.532 12.2131 14.5969C12.2765 14.6307 12.2852 14.6323 12.4058 14.6323C12.5264 14.6323 12.5353 14.6307 12.6052 14.5956C12.747 14.5245 12.8168 14.403 12.8088 14.2414C12.801 14.0861 12.7234 13.964 12.5936 13.9029C12.5103 13.8638 12.3522 13.8563 12.2665 13.8874Z" fill="url(#paint4_linear_192_10218)"/>
<defs>
<linearGradient id="paint0_linear_192_10218" x1="10" y1="21" x2="22" y2="11.5" gradientUnits="userSpaceOnUse">
<stop offset="0.0001" stop-color="#254A88"/>
<stop offset="1" stop-color="#4C70AE"/>
</linearGradient>
<linearGradient id="paint1_linear_192_10218" x1="9.99999" y1="21" x2="22" y2="11.5" gradientUnits="userSpaceOnUse">
<stop offset="0.0001" stop-color="#254A88"/>
<stop offset="1" stop-color="#4C70AE"/>
</linearGradient>
<linearGradient id="paint2_linear_192_10218" x1="10" y1="21" x2="22" y2="11.5" gradientUnits="userSpaceOnUse">
<stop offset="0.0001" stop-color="#254A88"/>
<stop offset="1" stop-color="#4C70AE"/>
</linearGradient>
<linearGradient id="paint3_linear_192_10218" x1="10" y1="20.9999" x2="22" y2="11.4999" gradientUnits="userSpaceOnUse">
<stop offset="0.0001" stop-color="#254A88"/>
<stop offset="1" stop-color="#4C70AE"/>
</linearGradient>
<linearGradient id="paint4_linear_192_10218" x1="10" y1="21" x2="22" y2="11.5001" gradientUnits="userSpaceOnUse">
<stop offset="0.0001" stop-color="#254A88"/>
<stop offset="1" stop-color="#4C70AE"/>
</linearGradient>
</defs>
</svg>

<svg viewBox="0 0 32 32" fill="none" xmlns="http://www.w3.org/2000/svg"><path d="M16 28c6.627 0 12-5.373 12-12S22.627 4 16 4 4 9.373 4 16s5.373 12 12 12Z" fill="#fff"/><path fill-rule="evenodd" clip-rule="evenodd" d="M3.5 16C3.5 9.096 9.096 3.5 16 3.5S28.5 9.096 28.5 16 22.904 28.5 16 28.5 3.5 22.904 3.5 16ZM16 4.5C9.649 4.5 4.5 9.649 4.5 16S9.649 27.5 16 27.5 27.5 22.351 27.5 16 22.351 4.5 16 4.5Z" fill="#D8D8D8"/><path fill-rule="evenodd" clip-rule="evenodd" d="M15.8 9.01a6.622 6.622 0 0 0-1.822.35 6.697 6.697 0 0 0-2.064 1.132 7.171 7.171 0 0 0-1.068 1.06c-.178.21-.41.544-.59.852a7.11 7.11 0 0 0-.848 4.897c.128.69.322 1.26.644 1.894l.122.24c.007.015.013.03.017.047l.015.07a.154.154 0 0 1 .004.044c-.005.069-.032.08-.062.151-.12.287-.338.544-.79.93-.175.148-.244.227-.3.34a.424.424 0 0 0-.052.28c.06.363.535.68 1.114.745.06.007.253.012.428.012.66 0 1.273-.095 1.635-.253a.18.18 0 0 1 .172.015l.026.017a6.787 6.787 0 0 0 3.483 1.136h.553a6.802 6.802 0 0 0 2.34-.519c.226-.095.637-.302.834-.419a7.132 7.132 0 0 0 1.986-1.782c.235-.308.523-.774.7-1.132a7.154 7.154 0 0 0 .702-2.547 7.929 7.929 0 0 0-.024-1.407 7.08 7.08 0 0 0-1.285-3.317 4.83 4.83 0 0 0-.348-.436 10.01 10.01 0 0 0-.728-.739 6.794 6.794 0 0 0-1.42-.953 6.66 6.66 0 0 0-2.707-.709 5.755 5.755 0 0 0-.667.001Zm3.888 2.208a5.794 5.794 0 0 0-3.14-1.192 8.718 8.718 0 0 0-.827 0 5.811 5.811 0 0 0-3.113 1.185 5.89 5.89 0 0 0-1.77 2.17 6.097 6.097 0 0 0-.564 3.323c.058.512.193 1.066.374 1.536.073.188.257.577.37.781.064.114.088.17.104.242.1.436.024.866-.22 1.23a2.15 2.15 0 0 1-.347.38l-.043.035c-.013.01-.01.03.005.036a.89.89 0 0 0 .13.03c.362.062.874.01 1.625-.167.116-.027.216-.047.22-.043a6.365 6.365 0 0 0 .965.625 5.837 5.837 0 0 0 4.266.435 5.823 5.823 0 0 0 2.542-1.5c.288-.295.49-.535.688-.819a6.072 6.072 0 0 0 1.084-3.61 5.986 5.986 0 0 0-.408-2.078 5.932 5.932 0 0 0-1.347-2.076 4.587 4.587 0 0 0-.594-.523Z" fill="url(#a)"/><path fill-rule="evenodd" clip-rule="evenodd" d="M19.19 15.13c-.539.043-.96.378-1.1.876-.117.417-.06.891.147 1.2.175.264.44.437.778.51.144.032.45.03.6-.005.45-.102.768-.385.905-.806.058-.177.068-.256.067-.503 0-.218-.002-.235-.034-.359a1.375 1.375 0 0 0-.16-.38 1.42 1.42 0 0 0-.258-.29 1.379 1.379 0 0 0-.425-.204 2.129 2.129 0 0 0-.388-.05l-.131.011Zm.625 1.194c-.027-.317-.14-.536-.32-.62a.474.474 0 0 0-.277-.024c-.183.049-.304.194-.369.441a1.65 1.65 0 0 0-.011.56c.04.201.108.331.215.417.086.069.154.091.275.092.09 0 .105-.004.17-.036.225-.113.35-.442.317-.83Z" fill="url(#b)"/><path d="M14.913 15.118a.959.959 0 0 0-.333.113 1.139 1.139 0 0 0-.25.232c-.047.069-.057.06-.066-.052-.01-.114-.023-.152-.071-.198a.122.122 0 0 0-.083-.034l-.185-.003-.189-.003a.12.12 0 0 0-.079.029.156.156 0 0 0-.044.065c-.005.02-.005.158 0 .309.004.15.008.638.008 1.084.001.894 0 .875.07.948.067.07.079.073.326.073.252 0 .26-.002.31-.082a.172.172 0 0 0 .024-.088l.006-.69.005-.7a.2.2 0 0 1 .014-.072l.011-.029c.077-.193.226-.3.4-.285.12.01.211.079.266.202.055.123.06.182.06.885 0 .733 0 .731.076.801.06.056.124.068.337.062.19-.006.22-.014.27-.076a.24.24 0 0 0 .04-.076 9.86 9.86 0 0 0 .012-.695c0-.81.005-.845.124-.98a.323.323 0 0 1 .264-.12c.175 0 .276.084.341.285.018.056.02.127.026.798l.006.686a.2.2 0 0 0 .025.096l.002.002c.042.076.064.082.316.082.134 0 .233-.005.256-.013.055-.019.094-.062.12-.13.022-.06.022-.078.018-.84l-.004-.753a.196.196 0 0 0-.005-.045l-.025-.107c-.084-.354-.28-.586-.56-.663a1.073 1.073 0 0 0-.405-.013c-.202.039-.334.115-.508.293a2.047 2.047 0 0 1-.118.115.234.234 0 0 1-.031-.053c-.13-.259-.432-.4-.777-.36Z" fill="url(#c)"/><path d="M12.137 15.182a.127.127 0 0 0-.087.082c-.015.04-.017.168-.017 1.158 0 .722.004 1.128.011 1.155a.186.186 0 0 0 .05.075.135.135 0 0 0 .09.035h.22c.309 0 .32-.003.362-.092l.004-.009a.199.199 0 0 0 .02-.085v-1.075c0-1.078-.002-1.12-.022-1.16-.04-.081-.06-.086-.352-.088-.141-.001-.267 0-.279.004Z" fill="url(#d)"/><path d="M12.267 13.887a.374.374 0 0 0-.253.404c.012.14.077.241.2.306.063.034.071.035.192.035.12 0 .13-.001.2-.036a.35.35 0 0 0 .203-.355.378.378 0 0 0-.215-.338.522.522 0 0 0-.327-.016Z" fill="url(#e)"/><defs><linearGradient id="a" x1="10" y1="21" x2="22" y2="11.5" gradientUnits="userSpaceOnUse"><stop offset="0" stop-color="#254A88"/><stop offset="1" stop-color="#4C70AE"/></linearGradient><linearGradient id="b" x1="10" y1="21" x2="22" y2="11.5" gradientUnits="userSpaceOnUse"><stop offset="0" stop-color="#254A88"/><stop offset="1" stop-color="#4C70AE"/></linearGradient><linearGradient id="c" x1="10" y1="21" x2="22" y2="11.5" gradientUnits="userSpaceOnUse"><stop offset="0" stop-color="#254A88"/><stop offset="1" stop-color="#4C70AE"/></linearGradient><linearGradient id="d" x1="10" y1="21" x2="22" y2="11.5" gradientUnits="userSpaceOnUse"><stop offset="0" stop-color="#254A88"/><stop offset="1" stop-color="#4C70AE"/></linearGradient><linearGradient id="e" x1="10" y1="21" x2="22" y2="11.5" gradientUnits="userSpaceOnUse"><stop offset="0" stop-color="#254A88"/><stop offset="1" stop-color="#4C70AE"/></linearGradient></defs></svg>
